X:229
T:OLD SPEDLING CASTLE'S GHOST'S DANCE
R:Jig
C:J. Porteus
S:8 X 32 Jig 1,2,3,4,  2,3,4,1
M:6/8
L:1/8
Q:116
K:A
E| "A" A,2 (A c)BA | "E"  B,2 (B d)cB | "A"  A,2 (A c)BA  | "D" fed "A"cBA |
"A" A,2 (A c)BA | "E" B,2 (B d)cB |! "D" fed "A" cBA | "E" GFE DCB, |
"A" A,2  (A c)BA | "E" B,2 (B d)cB | "A"  A,2  (A c)BA | "D" fed "A" cBA|!
"A" A,2 A "E" B,2 B | "A" C2 c "D" D2 d |  "D" fed "A" cBA | "E" E2G "A"  A3 ||
"A"  a2 (a a)fa | "E" g2 (g g)eg |!
"D"  f2 (f f)df | "A" e2 (e e)ce | "E" d2 (d d)Bd | "A" c2 (c c)Ac) | "D" fed "A" cBA |!
"E" Bcd efg | " A" aaa auaua | "E" ggg gugug |  "D" fff fufuf | "E" ggg gugug |!
"Bm"fff fufuf | "F#m" ccc "A" cucuc| "E" gab efg | "A"  a3 a2 ||
